X: 1662
T: Lazy Wind
C:John Spencer, Grafton, NSW
B: australian traditional tunes wiki
M:4/4
L:1/8
R: March
Q: 1/4=100
K:G
V:1 
"G"B3AB2c2|"D"d3cA2c2|"Em"B3AG2B2|"D"A6GA|"G"B3AG2B2|"D"A3GF2A2|d4c2B2|A6GA|
"G"B3AB2c2|"D"d3cA2c2|"Em"B3AG2B2|"D"A6Bc|"G"d3cB2G2|"Am"c3BA2F2|"D"D8-|D6EF|
"G"G3AB2c2|"D"d3ef2d2|"Em"g2b2a2g2|"D"f6ef|"G"g3ed2B2|"Am"A3GF2A2|"D"d8-|d2eg fd cA|
"G"G3AB2c2|"D"d3ef2d2|"Em"g3fg2b2|"D"a6ge|"G"d3cB2G2|"Am"c3BA2F2|"D"D8-|D6||
% abcbook-tune_id 6342d53a9566cd7c57dd8653


% abcbook-boost 0
% abcbook-tablature 
% abcbook-transpose 
% abcbook-lastupdated 1665324376735
% abcbook-soundfonts 
% abcbook-repeats 1
% NFF Book 2019
% Bush Traditions recording played by Carole

